assets/icons/qvision/rule_folder.svg

<svg xmlns="http://www.w3.org/2000/svg" enable-background="new 0 0 24 24" height="24" viewBox="0 0 24 24" width="24"><g><rect fill="none" height="24" width="24"/><path d="M20,6h-8l-2-2H4C2.9,4,2.01,4.9,2.01,6L2,18c0,1.1,0.9,2,2,2h16c1.1,0,2-0.9,2-2V8C22,6.9,21.1,6,20,6z M7.83,16L5,13.17 l1.41-1.41l1.41,1.41l3.54-3.54l1.41,1.41L7.83,16z M17.41,13L19,14.59L17.59,16L16,14.41L14.41,16L13,14.59L14.59,13L13,11.41 L14.41,10L16,11.59L17.59,10L19,11.41L17.41,13z"/></g></svg>

<svg width="24" height="24" viewBox="0 0 24 24" fill="none" xmlns="http://www.w3.org/2000/svg">
<g clip-path="url(#clip0_147_2888)">
<path d="M20 6H12L10 4H4C2.9 4 2.01 4.9 2.01 6L2 18C2 19.1 2.9 20 4 20H20C21.1 20 22 19.1 22 18V8C22 6.9 21.1 6 20 6ZM7.83 16L5 13.17L6.41 11.76L7.82 13.17L11.36 9.63L12.77 11.04L7.83 16ZM17.41 13L19 14.59L17.59 16L16 14.41L14.41 16L13 14.59L14.59 13L13 11.41L14.41 10L16 11.59L17.59 10L19 11.41L17.41 13Z" fill="#323232"/>
</g>
<defs>
<clipPath id="clip0_147_2888">
<rect width="24" height="24" fill="white"/>
</clipPath>
</defs>
</svg>
